stockx.svg

<?xml version="1.0" encoding="UTF-8"?>
<svg id="StockX_logo" class="chakra-icon css-a7oa7r" focusable="false" version="1.1" viewBox="0 0 201 40" xmlns="http://www.w3.org/2000/svg" xmlns:cc="http://creativecommons.org/ns#" xmlns:dc="http://purl.org/dc/elements/1.1/" xmlns:rdf="http://www.w3.org/1999/02/22-rdf-syntax-ns#">
 <title id="title1">StockX Logo</title>
 <g id="main" fill="#006340">
  <path id="X" d="m186.401 27.5001 14.6 12.4999v-10l-11.673-9.9944 11.673-10.0056v-10l-20.4 17.4859v-4.986l-14.6-12.4999v10l11.673 9.9944-11.673 10.0056v10l20.4-17.4856z"/>
  <path id="S" d="m20.3007 16.8-6.5501-1.25c-3.6501-0.7-5.24998-1.55-5.24998-3.55 0-2.80005 3.14998-4.25006 7.09998-4.25006 4.15 0 7.85 1.6 8.65 5.00006h7.0002c-0.8-6.49998-6.6501-10.75-15.6502-10.75-8.29998 0-14.849984 3.65011-14.849984 10.2501 0 5.75 4.900014 8.65 11.449984 9.9l6.55 1.25c3.6501 0.7 5.5 1.85 5.5 4.1 0 3.0499-3.4 4.75-7.6 4.75-5.15 0-8.59997-2.5-9.39997-6.25h-7.250019648c1.049989648 7.5 6.950009648 12 16.64998965 12 8.65 0 15.35-3.5 15.35-10.7501 1e-4 -6.4-5.15-9.2-11.6999-10.45z"/>
  <path id="t" d="m48.6507 6.25001v-3.75001h-7.25v2.75001c0 3.24997-1.5 4.74999-4.75 4.74999h-2.05v5.5h5.75v13.5001c0 6 2.95 8.5 9.95 8.5h5.95v-5.5001h-5.3c-2.5 0-3.35-0.75-3.35-3v-13.5h8.65v-5.5h-10.75z"/>
  <path id="c" d="m111.351 32.5c-5.25 0-8.6-3.7-8.6-8.7s3.35-8.7 8.6-8.7c4.05 0 6.95 2.25 7.7 5h7.15c-1.3-6.5-6.95-10.50002-14.85-10.50002-9.45 0-16.0002 5.70002-16.0002 14.20002s6.5502 14.2 16.0002 14.2c7.9 0 14.1-4 15.1-10.75h-7.15c-0.75 2.5-3.45 5.25-7.95 5.25z"/>
  <path id="o" d="m75.3507 9.59998c-9.7499 0-16 5.70002-16 14.20002s6.25 14.2 16 14.2 16.0001-5.7 16.0001-14.2-6.25-14.20002-16.0001-14.20002zm0 22.90002c-5.25 0-8.6-3.7-8.6-8.7s3.35-8.7 8.6-8.7 8.6001 3.7 8.6001 8.7-3.35 8.7-8.6001 8.7z"/>
  <path id="k" d="m145.151 22.9001 15.05-12.9h-9.75l-12.3 10.8v-18.3001h-7.25v35.0001h7.25v-8.6l4.347-3.7259 10.553 12.3259h9.2l-12.5-14.6z"/>
 </g>
 <metadata id="metadata1">
  <rdf:RDF>
   <cc:Work rdf:about="">
    <dc:title>StockX Logo</dc:title>
   </cc:Work>
  </rdf:RDF>
 </metadata>
</svg>

<svg class="chakra-icon css-a7oa7r" viewBox="0 0 201 40" xmlns="http://www.w3.org/2000/svg"><g fill="#006340"><path d="m186.401 27.5 14.6 12.5V30l-11.673-9.994L201.001 10V0l-20.4 17.486V12.5L166.001 0v10l11.673 9.994L166.001 30v10l20.4-17.486zM20.3 16.8l-6.55-1.25C10.1 14.85 8.5 14 8.5 12c0-2.8 3.15-4.25 7.1-4.25 4.15 0 7.85 1.6 8.65 5h7C30.45 6.25 24.6 2 15.6 2 7.3 2 .75 5.65.75 12.25c0 5.75 4.9 8.65 11.45 9.9l6.55 1.25c3.65.7 5.5 1.85 5.5 4.1 0 3.05-3.4 4.75-7.6 4.75-5.15 0-8.6-2.5-9.4-6.25H0c1.05 7.5 6.95 12 16.65 12C25.3 38 32 34.5 32 27.25c0-6.4-5.15-9.2-11.7-10.45zM48.65 6.25V2.5H41.4v2.75c0 3.25-1.5 4.75-4.75 4.75H34.6v5.5h5.75V29c0 6 2.95 8.5 9.95 8.5h5.95V32h-5.3c-2.5 0-3.35-.75-3.35-3V15.5h8.65V10H45.5zM111.351 32.5c-5.25 0-8.6-3.7-8.6-8.7s3.35-8.7 8.6-8.7c4.05 0 6.95 2.25 7.7 5h7.15c-1.3-6.5-6.95-10.5-14.85-10.5-9.45 0-16 5.7-16 14.2s6.55 14.2 16 14.2c7.9 0 14.1-4 15.1-10.75h-7.15c-.75 2.5-3.45 5.25-7.95 5.25zM75.35 9.6c-9.75 0-16 5.7-16 14.2S65.6 38 75.35 38s16-5.7 16-14.2-6.25-14.2-16-14.2zm0 22.9c-5.25 0-8.6-3.7-8.6-8.7s3.35-8.7 8.6-8.7 8.6 3.7 8.6 8.7-3.35 8.7-8.6 8.7zM145.151 22.9l15.05-12.9h-9.75l-12.3 10.8V2.5h-7.25v35h7.25v-8.6l4.347-3.726L153.051 37.5h9.2l-12.5-14.6z"/></g></svg>
